svgs/thin/grate-droplet.svg

<svg xmlns="http://www.w3.org/2000/svg" viewBox="0 0 576 512"><!-- Font Awesome Pro 6.0.0-alpha2 by @fontawesome - https://fontawesome.com License - https://fontawesome.com/license (Commercial License) --><path d="M16 416V96C16 69.49 37.49 48 64 48H384C410.51 48 432 69.49 432 96V152C432 156.418 435.582 160 440 160L440 160C444.418 160 448 156.418 448 152V96C448 60.654 419.346 32 384 32H64C28.654 32 0 60.654 0 96V416C0 451.346 28.654 480 64 480H312C316.418 480 320 476.418 320 472L320 472C320 467.582 316.418 464 312 464H64C37.49 464 16 442.51 16 416ZM96 96C78.326 96 64 110.326 64 128V384C64 401.672 78.326 416 96 416H296C304.836 416 312 408.836 312 400V264H368C376.836 264 384 256.836 384 248V128C384 110.326 369.674 96 352 96H96ZM136 400H96C87.178 400 80 392.822 80 384V264H136V400ZM136 248H80V128C80 119.178 87.178 112 96 112H136V248ZM216 400H152V264H216V400ZM216 248H152V112H216V248ZM296 400H232V264H296V400ZM296 248H232V112H296V248ZM368 128V248H312V112H352C360.822 112 368 119.178 368 128ZM482.594 205.83C480.053 196.711 472.035 192 463.994 192C456.119 192 448.221 196.514 445.406 205.83C415.656 304.344 352 331.219 352 400.672C352 462.156 402.094 512 464 512S576 462.156 576 400.672C576 330.828 512.49 304.891 482.594 205.83ZM464 496C411.066 496 368 453.236 368 400.672C368 369.281 383.719 347.158 403.617 319.15C422.434 292.668 445.85 259.709 460.723 210.455C460.945 209.721 461.465 208 463.994 208C465.178 208 466.691 208.369 467.275 210.451C482.234 260.014 505.668 292.889 524.496 319.305C545.107 348.221 560 369.113 560 400.672C560 453.236 516.936 496 464 496Z"/></svg>

<svg xmlns="http://www.w3.org/2000/svg" viewBox="0 0 576 512"><!--! Font Awesome Pro 6.3.0 by @fontawesome - https://fontawesome.com License - https://fontawesome.com/license (Commercial License) Copyright 2023 Fonticons, Inc. --><path d="M16 416V96c0-26.51 21.49-48 48-48h320c26.51 0 48 21.49 48 48v56C432 156.4 435.6 160 440 160S448 156.4 448 152V96c0-35.35-28.65-64-64-64H64C28.65 32 0 60.65 0 96v320c0 35.35 28.65 64 64 64h248c4.418 0 8-3.582 8-8s-3.582-8-8-8H64C37.49 464 16 442.5 16 416zM96 96C78.33 96 64 110.3 64 128v256c0 17.67 14.33 32 32 32h200c8.836 0 16-7.164 16-16V264h56c8.836 0 16-7.164 16-16V128c0-17.67-14.33-32-32-32H96zM136 400H96c-8.822 0-16-7.178-16-16V264h56V400zM136 248H80V128c0-8.822 7.178-16 16-16h40V248zM216 400h-64V264h64V400zM216 248h-64V112h64V248zM296 400h-64V264h64V400zM296 248h-64V112h64V248zM368 128v120h-56V112H352C360.8 112 368 119.2 368 128zM482.6 205.8C480.1 196.7 472 192 463.1 192c-7.875 0-15.77 4.514-18.59 13.83C415.7 304.3 352 331.2 352 400.7C352 462.2 402.1 512 464 512s112-49.84 112-111.3C576 330.8 512.5 304.9 482.6 205.8zM464 496c-52.93 0-96-42.76-96-95.33c0-31.39 15.72-53.51 35.62-81.52c18.82-26.48 42.23-59.44 57.11-108.7C460.9 209.7 461.5 208 463.1 208c1.184 0 2.697 .3691 3.281 2.451c14.96 49.56 38.39 82.44 57.22 108.9C545.1 348.2 560 369.1 560 400.7C560 453.2 516.9 496 464 496z"/></svg>
